X:1
T: Mrs. Maule of Paumure
C:Nathaniel Gow
R:Strathspey
Q: 128
K:F
M:4/4
L:1/16
|:f2|cF3 c3A G3F D2f2|cF3 c3A FGAB c2A2|B3G A3F G3F D2f2|cF3 A3G F4 F2f2|
cF3 c3A G3F D2f2|cF3 c3A FGAB c2A2|B3G A3F G3F D2f2|cF3 A3G F4 F2c1/2d1/2e|
f3c f2a2 g2f2 d2e2|f3c f2a2 c2fg a2f2|g3f a3f g3f d2e2|f3c a3g f4 f2c1/2d1/2e|
f3c f2a2 g2f2 d2e2|f3c fa3 df3 cf3|Bf3 Af3 G3F D3G|FGAB c2A2 c4 c2:|
